svg/fluentui-system-icons/ic_fluent_skip_forward_10_20_filled.svg

<svg width="20" height="20" viewBox="0 0 20 20" fill="none" xmlns="http://www.w3.org/2000/svg">
<path d="M15.7334 5.62788V3.75C15.7334 3.33579 16.0692 3 16.4834 3C16.8976 3 17.2334 3.33579 17.2334 3.75V7.25C17.2334 7.66421 16.8976 8 16.4834 8H12.4834C12.0692 8 11.7334 7.66421 11.7334 7.25C11.7334 6.83579 12.0692 6.5 12.4834 6.5H14.5076C13.3127 5.11091 11.6049 4.25 9.73327 4.25C7.33402 4.25 5.20391 5.66478 4.07837 7.79336C3.93422 8.06598 3.65831 8.25 3.34993 8.25C2.81217 8.25 2.43851 7.71676 2.68085 7.2367C4.02233 4.5792 6.65726 2.75 9.73327 2.75C12.139 2.75 14.275 3.86891 15.7334 5.62788ZM12.5014 17C14.3764 17 15.0014 15.433 15.0014 13.5C15.0014 11.567 14.3764 10 12.5014 10C10.6264 10 10.0014 11.567 10.0014 13.5C10.0014 15.433 10.6264 17 12.5014 17ZM13.1779 15.1875C13.1011 15.3119 13.0281 15.3733 12.9606 15.4104C12.8917 15.4483 12.7568 15.5 12.5014 15.5C12.2461 15.5 12.1112 15.4483 12.0423 15.4104C11.9748 15.3733 11.9018 15.3119 11.825 15.1875C11.6468 14.8985 11.5014 14.3503 11.5014 13.5C11.5014 12.6497 11.6468 12.1015 11.825 11.8125C11.9018 11.6881 11.9748 11.6267 12.0423 11.5896C12.1112 11.5517 12.2461 11.5 12.5014 11.5C12.7568 11.5 12.8917 11.5517 12.9606 11.5896C13.0281 11.6267 13.1011 11.6881 13.1779 11.8125C13.3561 12.1015 13.5014 12.6497 13.5014 13.5C13.5014 14.3503 13.3561 14.8985 13.1779 15.1875ZM8.25146 10.75C8.25146 10.4571 8.08095 10.191 7.81485 10.0686C7.54875 9.94624 7.23575 9.98995 7.01336 10.1806L5.26336 11.6806C4.94887 11.9501 4.91245 12.4236 5.18201 12.7381C5.45158 13.0526 5.92506 13.089 6.23955 12.8195L6.75146 12.3807V16.25C6.75146 16.6642 7.08724 17 7.50146 17C7.91567 17 8.25146 16.6642 8.25146 16.25V10.75Z" fill="#212121"/>
</svg>

<svg xmlns="http://www.w3.org/2000/svg" width="20" height="20"><path d="M15.733 5.628V3.75a.75.75 0 0 1 1.5 0v3.5a.75.75 0 0 1-.75.75h-4a.75.75 0 0 1 0-1.5h2.025c-1.195-1.39-2.903-2.25-4.775-2.25-2.399 0-4.53 1.415-5.655 3.543a.834.834 0 0 1-.728.457c-.538 0-.911-.533-.67-1.013C4.023 4.579 6.658 2.75 9.734 2.75c2.406 0 4.542 1.119 6 2.878ZM12.501 17c1.875 0 2.5-1.567 2.5-3.5s-.625-3.5-2.5-3.5-2.5 1.567-2.5 3.5.625 3.5 2.5 3.5Zm.677-1.813a.59.59 0 0 1-.217.223c-.07.038-.204.09-.46.09-.255 0-.39-.052-.459-.09a.59.59 0 0 1-.217-.223c-.178-.288-.324-.837-.324-1.687 0-.85.146-1.399.324-1.688a.59.59 0 0 1 .217-.222c.07-.038.204-.09.46-.09.255 0 .39.052.459.09a.59.59 0 0 1 .217.223c.178.288.323.837.323 1.687 0 .85-.145 1.399-.323 1.688ZM8.25 10.75a.75.75 0 0 0-1.238-.57l-1.75 1.5a.75.75 0 1 0 .977 1.14l.511-.44v3.87a.75.75 0 0 0 1.5 0v-5.5Z"/></svg>
